X:1
T:J'ai vu le loup, le renard et la belette
C:Traditionnel, fichier abc : Bernard Loffet
L:1/8
Q:360
M:2/4
K:C
|: [c2C,,2] [BC,]A | [G2C,,2] [AG,]B | [cG,,]B [cG,]d | [e2C,,2] [c2C,2] | [c2C,,2] [BC,]A | \
 [G2F,,2] [AF,]B | [c2G,,2] [d2G,2] | [c2C,,2] C,2 :|: [c2C,,2] [d2C,2] | [e2F,,2] [f2F,2] | \
 [e2G,,2] [d2G,2] | [e2C,,2] C,2 | [c2C,,2] [cC,]B | [A2F,,2] [AF,]G | [A2F,,2] [B2F,2] | \
|1 [A2G,,2] [G2G,2] :|2 [c2C,,2] C,2 | \
Z:Created with TablEdit http://www.tabledit.com/ by Bernard Loffet
